X:1
T:Super Mario Land 2: 6 Golden Coins
T:Ending Theme
T:Kazumi Tokata Transcribed to MIDI by Cezary Sławecki
T:Super Mario Land 2: 6 Golden Coins Ending Theme
T:as improvised by Tom Brier from an arrangement by Ron O'Dell
C:Kazumi Tokata
C:Transcribed by Cezary Sławecki
%%score { ( 1 3 ) | ( 2 4 ) }
L:1/8
Q:1/4=125
M:3/4
K:C
V:1 treble nm="P1"
V:3 treble 
V:2 bass 
V:4 bass 
V:1
!f!"^Allegretto" [EGce]>[EGce] [EGce][EGce] [Ff][Gg] | [Acfa]>[Acfa] [Acfa][Acfa] [Bb][cc'] | %2
"^poco rit."[Q:1/4=120] [dfbd']>[dfbd'][Q:1/4=110] [dfbd'][dfbd'][Q:1/4=95] [ee'][ff'] | %3
[M:12/4] !>![gbd'f'g']4[Q:1/2=100] (D/F/ G/B/d/) (B/f/ g/b/d'/)!8va(! (b/f'/ g'/b'/d''/) (g''/d''/b'/g'/) (g''/d''/b'/g'/)!>(! (g''/d''/b'/g'/) (g''/d''/b'/g'/) (g''/b'/g'/)!>)![Q:1/2=55]!mp! z2 x | %4
[M:3/4] !///-!d'2 d''2 z2 | !///-!e'2 e''2 z2 |[Q:1/2=50] !///-!^f'2 ^f''2[Q:1/2=25] !fermata!z2 || %7
[K:G][M:2/4][Q:1/4=90]"^Lento" !arpeggio![abd'a']2 [gbd'g'][abd'a']- | [abd'a'] [gbd'g']2 z | %9
 !arpeggio![fbd'f']2 [ebd'e'][fbd'f']- | [fbd'f'] [ebd'e']2 z | [dgbd']2 [^dgb^d'][ebe']- | %12
 [ebe'][!courtesy!=d^gb!courtesy!=d'] [cgc'][Bgb] | [ceac']4 | ([^g^g'][aa'] [c'c''][e'e'']) | %15
 !arpeggio![bc'e'b']2 [ac'e'a'][bc'e'b']- | [bc'e'b'] [ac'e'a']2 z | %17
 [gc'e'g']2 [fc'e'f'][gc'e'g']- | [gc'e'g'] [fc'e'f']2 z | !arpeggio![eac'e'][dd'] [ff'][eac'e']- | %20
"^rit."[Q:1/4=80] [eac'e'][Q:1/4=70]d'[Q:1/4=60] f'e' | %21
 d' !arpeggio!!fermata![d'f'a'd'']2!8va)![Q:1/4=90] z | !fermata!Td4 | !fermata!Te4 | %24
 !fermata!Tf4 | z2 ef || %26
[Q:1/4=100]"^Moderato"!mf! [Bda] (3:2:2[Bdg][Bda]/- (3:2:2[Bda][Bdg]/- [Bdg] | %27
 [GBf] (3:2:2[GBe][GBf]/- (3:2:2[GBf][GBe]/- [GBe] | %28
 [Bd] (3:2:2^d[^GBe]/- (3:2:2[GBe]=d/ (3:2:2cB/ | [EAc] z (3:2:2^GA/ (3:2:2ce/ | %30
 [ceb] (3:2:2[cea][ceb]/- (3:2:2[ceb][cea]/- [cea] | %31
 [Acg] (3:2:2[Acf][Acg]/- (3:2:2[Acg][Acf]/- [Acf] | (3:2:2ed/ (3:2:2f[^Ae]/- (3:2:2[Ae]d/ [Af] | %33
 [Be]4 | z (3:2:2^cd/ (3:2:2ed/ (3:2:2ef/ ||[Q:1/4=130]"^Allegretto" [Bda]2 [Bdg][Bda]- | %36
 [Bda] [Bdg]2 z | [GBf]2 [GBe][GBf]- | [GBf] [GBe]2 z | [GBd]2 [^D^d][E^GBe]- | %40
 [EGBe][E^G!courtesy!=d] [Ec][EB] | [EAc]^G/A/- A/[EAc] z/ | ^GA c<e | [Bceb]2 [Acea][Bceb]- | %44
 [Bceb] [Acea]2 z | [Gceg]2 [Fcef][Gceg]- | [Gceg] [Fcef]2 z | [EAce][DAd] [FAf][E^Ae]- | %48
 [EAe][D^Ad] [FAf]2 | [EGBe]2 z2 | z [^C^c]/[Dd]/ [Ee][Ff] | [ABda]2 [GBdg][ABda]- | %52
 [ABda][GBdg] z/ (G/B/d/ | [GBdf]2) [GBe][GBf]- | [GBf] [GBe]2 z | %55
 [DGBd]2 [^D^d][E^GB!courtesy!=de]- | [EGBde][Ede] [^G^g][Bb] | [dead'][cc'] [Bb][ceac']- | %58
 [ceac']4 | [ceb]2 [cea][c_eb]- | [ceb] [c_ea]2 z | [Bda]2 [Bdg][_B_da]- | [Bda]_B [Be][Bf] | %63
 [Acg]2 [ce][^c^e] | [df]2 [G!courtesy!=e][Af] | [GBe] [Bd]3- | [Bd]4 | [^D^d][Ee] [Gg][^E^e] | %68
 [Fcf]2 [B!courtesy!=dfb]2 | [Bdfb] [GBdg]2 z | [ff'][=f=f'] [ee'][_e_e'] || !///-!d'2 d2 | %72
 !///-!d'2 d2 | z4 | .[ff'].[=f=f'] .[ee'].[_e_e'] | !///-![bd']2 d2 | !///-![bd']2 d2 | z4 | %78
 [fbf'][=f=f'] [ee'][_e_e'] | [dad']4- | [dad']4 | z4 | [Aa][Bb] [cc'][^c^c'] | [dfad']4- | %84
 [dfad']4 | z2 !>![Dd]2 | !>![E^ce]2 !>![F!courtesy!=cf]2 || %87
!mf! !arpeggio!.[ABda] z [GBdg][ABda]- | [ABda] [GBdg]2 z | .[FBdf] z [EBde][FBdf]- | %90
 [FBdf] [EBde]2 z | [DGBd]2 [^D^d][E^GB!courtesy!=de]- | [EGBde]d cB | [EAc]2 z2 | %94
 [^G^g][Aa] [cc'][ee'] |!8va(! .[bc'e'b'] z [ac'e'a'][bc'e'b']- | [bc'e'b'] [ac'e'a']2 z | %97
 .[gc'e'g'] z [fc'f'][gc'g']- | [gc'g'] [fc'f']2!8va)! z | [EAce][Dd] [Ff][E^Ae]- | %100
 [EAe][D^Ad] [FAf]2 | [EGBe]2 z2 | z [^C^c]/[Dd]/ [Ee][Ff] | .[ABda] z [GBdg][ABda]- | %104
 [ABda] [GBdg]2 z | .[FBdf] z [EBde][FBdf]- | [FBdf] [EBde]2 z | %107
 [DGBd]2 [^D^d][E^GB!courtesy!=de]- | [EGBde][Ede] [^G^g][Bb] | [dead'][cc'] [Bb][ceac']- | %110
 [ceac']2 z2 | .[ceb] z [cea][c_eb]- | [ceb] [c_ea]2 z | [Bda] z [Bdg][_B_da]- | %114
 [Bda][_Bg] [Be][Bf] | [Acg]2 [ce][^c^e] | [df]2 [G!courtesy!=e][Af] | [GBe] [GB-d-]3 | [^GBd]4 | %119
 ^de g^e | [cf]2 [B!courtesy!=dfb]2 | [Bb] [Bdg]2 z || z!mp! F/=F/E_E | z F G^G | A^G A^A | %125
 [DB]^A B[DGd]- | [DGd] F/=F/E_E | z F2 G | A^G A^A | [DB]_B !courtesy!=A[B,D^G]- | %130
 [B,DG]!mf! [E^Ge]2 z | [Bceb]2 [Aa][Bb]- | [Bb] [Ac_ea]2 z | [ABda]2 [GBdg][_G_B_d_g]- | %134
 [GBdg] [_F_B_d_f]2 z |"^molto rit."[Q:1/4=125] !courtesy!=d3[Q:1/4=115] d | %136
[Q:1/4=110] [Bdb][Aca][Q:1/4=100] [Fcf][Dd] |[Q:1/4=85] [GBdg][GBdg][Q:1/4=80] [G_B_dg][GAcg] | %138
[Q:1/4=70] [G!courtesy!=Bg][B,D=FG][Q:1/4=65] [B,DFA][DFB] ||[M:3/4][Q:1/2=70]"^Andante" G6- | G6 | %141
 !arpeggio![Ac_ea]4 [Gceg]2 | [Ac_ea]2 [Gceg]4 | !arpeggio![=FGc=f]4 [_EGc_e]2 | %144
 [=FGc=f]2 [_EGc_e]4 | [DGBd]4 [dgbd'][^d^d'] | [egbe']2 z [ff'] [ee'][_e_e'] | [d^gbd']2 z E^GB | %148
 [E^Gc]3 B [Ee]2 | [=FAc=f]4 [EAce]2 |!<(! [Acea]3 [Bb][cc']!<)![dd'] | %151
!>(! [_egc'_e']3 [dd'][cc']!>)![_B_b] | [Afa]2 [dfad']2 z [Ff] | [GBdg]4 B2 | [_EGc_e]3 cAG | %155
"^poco rit."[Q:1/2=67] [DB]2[Q:1/2=65] [DGB]2[Q:1/2=63] [DFB]2 |[Q:1/2=62] [D=FB]6 | %157
"^A tempo"[Q:1/2=70] !arpeggio![Ac_ea]4 [Gceg]2 | [Ac_ea]2 [Gceg]2 z2 | [=FGc=f]4 [_EGc_e]2 | %160
 [_B,_B]2 [Cc]2 [^C^c]2 |"^poco rall." [DG!courtesy!=Bd]6 |[Q:1/2=67] [_D_G_B_d]6 | %163
[Q:1/2=65] [C=FAc]6 |[Q:1/2=62] !arpeggio![B,E^GB]6 |[Q:1/2=60] !arpeggio![CEB]4 A2 | B2 A2 C2 | %167
 [Acf]2 e2 c2 | [c_ea]2 g2 e2 | [dc']2 b2 g2 | !arpeggio![_g_b_g']2 _f'2 g'2 | %171
 [!courtesy!=ge']2 d'2 !courtesy!=b2 | %172
[M:8/4] !arpeggio!!>![^gbd'e']2!mf![I:staff +1] !>!E,,E,/[Q:1/2=100] (^G,/B,/[I:staff -1]D/E/ ^G/B/d/e/ g/b/d'/ !fermata!e'2) z4[Q:1/2=60] c/4^c/4d/4^d/4 | %173
[M:3/4]!mp![Q:1/2=60] (12:8:12e/!courtesy!=c/"^tremolo"e/c/e/c/e/c/e/c/e/c/ (6:4:6=f/c/f/c/b/c/ | %174
 (12:8:12b/c/b/c/b/c/b/c/b/c/b/c/ (6:4:6a/ c/a/c/a/c/ | %175
 (12:8:12g/c/g/c/g/c/g/c/g/c/g/c/ (6:4:6_e/c/e/c/e/ z/ | %176
 (12:8:11c/F/c/F/c/F/c/F/c/F/ z (6:4:6F/B/F/B/z/B,/ || %177
 (12:8:12A/B,/A/B,/A/B,/A/B,/A/B,/A/B,/ [DG] z |{/B,-} [B,A]2 (6:4:6G/B,/G/B,/G/ z/ z2 | %179
 (12:8:12B,/F/B,/F/B,/F/B,/F/B,/F/B,/F/ [B,E]2 | %180
 (6:4:6B,/F/B,/F/B,/F/ (6:4:5B,/E/B,/E/ z z3/2[I:staff +1] B,/ | %181
 (6:4:6D/B,/D/B,/D/B,/ D[I:staff -1] z[I:staff +1] [^D,^D]2 | %182
!mf! [E,^G,B,E]2[I:staff -1] z[I:staff +1] [G,!courtesy!=D] [E,C]B, |[I:staff -1] x6 | %184
[K:treble] [EA][^GB] [Ac][B^d] [ce]a |!mp! (12:8:12c/b/c/b/c/b/c/b/c/b/c/b/ [ca]2 | %186
{/c-} [cb]2 [cea]2 z2 | (12:8:12A/g/A/g/A/g/A/g/A/g/A/g/ (6:4:6A/f/A/f/A/f/ | %188
 (6:4:6A/g/A/g/A/g/ (6:4:6A/f/A/f/A/f/ (3A/f/ z/ z |"^poco accel."[Q:1/2=62] [EAce]2 z [Dd] [Ff]2 | %190
[Q:1/2=65] [E^Ae]2 z [Dd] [FAf]2 |!mf![Q:1/2=70] [EGBe]6 | %192
[Q:1/2=67] [FAcd]4[Q:1/2=62] z2[Q:1/2=65] | %193
[Q:1/2=60]"^A tempo" (12:8:12a/A/a/A/a/A/a/A/a/A/a/A/ [Gdg]2 | [Ada]2 (6:4:6g/G/g/G/g/G/ z2 | %195
 (12:8:12[df]/F/[df]/F/[df]/F/[df]/F/[df]/F/[df]/F/ [EBe]2 | %196
 (6:4:6[df]/F/[df]/F/[df]/F/ (6:4:6e/E/e/E/e/ z/ z2 |[Q:1/2=90]"^molto accel." [DGBd]2 z2 [^D^d]2 | %198
[M:4/4][Q:1/2=100] [E^GB!courtesy!=de]2 [Ee]2 [G^g]2 [Bb]2 |!f! [dead']2 [ceac']2 [Beb]2 [ceac']2 | %200
 [eac'e']2 [ac'e'a']2!8va(! [c'e'a'c'']2 [e'a'c''e'']2 |[Q:1/2=60] !fermata![a'c''e''a'']8!8va)! || %202
[M:3/4][Q:1/2=50] !arpeggio![c_eb]4 [cea]2 | [c_eb]2 [cea]4 | !arpeggio![Bda]4 [Bdg]2 | %205
 [_Bea]4 [^ce]f | !arpeggio![A!courtesy!=cg]4 [ce]^e | [Acdf]4 [Gc!courtesy!=e][Acf] | %208
 ed z2 (B/d/g/b/ | !arpeggio![=f_a=f'])[dad'] z [faf'] [eae'][dad'] | %210
"^poco rit." !arpeggio![e!courtesy!=ad']3 c' ^d!courtesy!=e |[Q:1/2=50] !arpeggio![_egad']3 c'3 | %212
[Q:1/2=47] !arpeggio![dgc']3 b ^cd |[Q:1/2=45] !arpeggio![de^gc']4 !arpeggio![degb]2- | [degb]6 | %215
 !arpeggio![c_e!courtesy!=gc']3 b ae | d2 !fermata![fb]4 | z2 !fermata![cf]4 || %218
[M:2/4]"^A tempo"[Q:1/2=55]!mp! [Bg]4- | [Bg]4 | z4 | z4 | %222
!8va(! !arpeggio![bd'a']2 [bd'g'][bd'a']- | [bd'a'] [bd'g']2 z | [gbf']2 [gbe'][gbf']- | %225
 [gbf'] [gbe']2 z | [dgbd']2 [^d^d'][e^gbe']- | [egbe']!courtesy!=d' c'b | [ead']2 c'[ae'] | %229
 ^ga c'e' | [c'e'b']2 [c'e'a'][c'e'b']- | [c'e'b'] [c'e'a']2 z | [ac'g']2 [ac'f'][ac'g']- | %233
 [ac'g'] [ac'f']2 z | !arpeggio![ac'e']2 d'f' | e'd' f'2 | [gbe']2 b[fd']- | [fd']!8va)!d ef | %238
 !arpeggio![Bda]2 [Bg][Bda]- | [Bda] [Bg]2 z | [GBf]2 [GBe][GBe] | f [GBe]2 z | [GBd]2 ^d[^GBe]- | %243
 [GBe]e ^gb | d'c' b[ac']- | [ac']2 z2 | !arpeggio![ceb]2 [ca][c_eb]- | [ceb] [c_ea]3 | %248
 !arpeggio![Bda]2 [Bdg][_B!courtesy!=ea]- | [Bea]2 ef | [Acg]2 e^e | [Acdf]2 !courtesy!=ef | %252
 ed z2 | !arpeggio![de^gd'] [gb]3 | ^de !courtesy!=g^e | [cf]2 [fb]2 | [Bdg]2 z2 | %257
!8va(! f'=f' e'_e' | [dfad']4!8va)! | z4 | z4 |!8va(! [fac'f'][=f=f'] [ee'][_e_e'] | %262
 [dgbd']4!8va)! | z4 | z4 |!8va(! f'=f' e'_e' | [dad']4!8va)! | z4 | z4 | ab c'^c' | [dbd']4 | z4 | %272
"^rit."[Q:1/2=50] !arpeggio![d=f_bd']4 |[Q:1/2=45] z4 | z4[Q:1/2=35] | z2 [dfad']2[Q:1/2=30] | %276
[Q:1/2=25] [eg^c'e']2 !arpeggio![fa!courtesy!=c'd'f']2 || %277
[M:4/4][Q:1/2=65]!8va(! !arpeggio!.[abd'a']2 z2 [gbd'g'] z [abd'a']2- | %278
 [abd'a']2 [gbd'g']2 [fbd'f'][gg'][ff'][ee'] |!<(! [ff']2 z2 [ebe'] z [fbf']2- | %280
 [fbf']2 [ebe']4 z2!<)! |!mf! [dgbd']4 [^db^d']2 [e^gbe']2- | %282
 [egbe']2 [e^g!courtesy!=d']2 [egc']2 [egb]2 | [ceac']2!8va)! (3[EA]^GA (3[Ac]B[Ac] (3[ce]^d[ce] | %284
 [Acea][^G^g][Aa][Bb] [cc'][!courtesy!=dd'][ee'][!courtesy!=gg'] | [cec'] z z2 [Beb] z [Beb]2- | %286
 [Beb]2 [Acea]3 [Bceb][Aca]e | [Gceg]4 [Fcef] z [Gceg]2- | [Gceg]2 [Fcef]4 z2 | %289
 [Ee] z [DAd] z [FAcf] z [E^Ae]2- | [EAe]2 [D^Ad]2 [FAdf]2 [DAd]2 | %291
 [EGBe]2 (3^A,[G,B,]^C (3[B,D] z F (3[DG] z ^A | [GB][GBd][^C^c][Dd] [^D^d][Ee][^E^e][Ff] | %293
 [AB!courtesy!=da] z z2 [GBdg] z [ABda]2- | [ABda]2 [GBdg]4 z2 | [GBf]4 [GBe] z [GBf]2- | %296
 [GBf]2 [GBe]4 z2 | [DGBd]4 [^D^d]2 [E^GB!courtesy!=de]2- | [EGBde]2 [E^GBde]2 [GBd^g]2 [Bdgb]2 | %299
 [dead']2 [ceac'] z [Bb] z [ceac']2- | [ceac']4 z4 | [c_egb]4 [cega]2 [cegb]2- | %302
 [cegb]2 [c_ega]4 z2 | !arpeggio![Bda]4 g4 |[M:11/8] [_Bea]4 [Beg]4 [Be]3/2[Bf]3/2 | %305
[M:4/4][Q:1/2=50] [Aceg]4 [EAce]2 [^Ec^e]2 | [FAdf]4 [G!courtesy!=e]2 [Af]2 | %307
"^rit."[Q:1/2=47]!<(! [GBe]4[Q:1/2=45] [DGBd]4!<)! | %308
[M:33/16]!f! !>![DE^GB]2[Q:1/2=100] (^G,/B,/ D/E/G/B/ d/e/^g/b/!8va(! d'/e'/^g'/ !fermata!b'2)!8va)![Q:1/2=50] z2"^A tempo"!ff! [^D^d][Ee] [cc'][Bb] | %309
[M:4/4][Q:1/2=55] [Beb]4 [Aea]2 [B_e!courtesy!=gb]2- |"^rit."[Q:1/2=52] [Begb]2 [A_ega]6 | %311
[Q:1/2=50] [ABda]4[Q:1/2=47] [GBdg]2 z2 |!sfz![Q:1/2=42] !>![_g_b_d'_g']4 !>![_fgbd'_f']4- | %313
 [_fgbd'_f']8 |"^A tempo"[Q:1/2=50]!mf! [d!courtesy!=g!courtesy!=b!courtesy!=d']4 [Bdg]2 [Bb]2 | %315
 [B^cgb]4 [A!courtesy!=cfa]4 |"^poco accel." [GBdg]4!<(! [DGB]2 [DGBd]2[Q:1/2=65] | %317
"^poco rit."[Q:1/2=52] [_G_B_d_g]4!<)![Q:1/2=50]!>)!!>(! [_FBd_f]4 | %318
 !arpeggio![E!courtesy!=G!courtesy!=Be]2 z/ [D!courtesy!=d]3/2 [DB]2 G2 | %319
"^rit."[Q:1/2=45]!>(! [_DEGB]4[Q:1/2=43] [DEG_B]4!>)! | %320
[Q:1/2=40] [C!courtesy!=DFA]4 !arpeggio![DFAd]2 !courtesy!=B2 | [B,EG]4 B4 | _B4 A2 G2 | %323
"^rubato"[Q:1/2=55] DEGe[Q:1/2=52] !courtesy!=Bd[Q:1/2=50]gb | %324
[Q:1/2=47]!8va(! c'b[Q:1/2=45]e'd'[Q:1/2=42] g'd'[Q:1/2=40]b'e'' |{/d''e''} d''8[Q:1/2=55] | x8 | %327
 d'e'f'g' a'b'c''^c'' | d''_d''!courtesy!=c''!courtesy!=d'' a'c''d'f' | %329
[Q:1/2=55]"^A tempo" g'g[be']g d'gg'g | e'gd'g e'gg'g | d'ge'g g'gd'g | e'gg'g e'gd'g | %333
 c'gg'g c'g_e'g | _e'gg'g c'ge'g | d'gg'g b d'2 b | %336
"^rit."[Q:1/2=52] d'g[Q:1/2=47]bg[Q:1/2=40] e'b[Q:1/2=35]d'b | !arpeggio![gd'b']8!8va)! | %338
 !arpeggio!!fermata![B,DB]8 |] %339
V:2
 [C,,C,]>[C,,C,] [C,,C,][C,,C,] [D,,D,][E,,E,] | %1
 [F,,C,F,]>[F,,C,F,] [F,,C,F,][F,,C,F,] [G,,G,][A,,A,] | %2
 [B,,B,]>[_B,,_B,] [B,,B,][B,,B,] [A,,A,][_A,,_A,] | %3
[M:12/4]!ped! !>![G,,D,G,]2 !>![G,,,G,,]4 x4 x2 x6 x6 |[M:3/4] x6 | x6 | x6!ped-up! || %7
[K:G][M:2/4][K:treble]!ped! (GB dB)!ped-up! |!ped! (GB dB)!ped-up! |!ped! (GB dB)!ped-up! | %10
!ped! (GB dB)!ped-up! |!ped!"_simile"!ped! GB G!ped-up!B |!ped! ^GB- B!ped-up!G | %13
!ped! Ac e!ped-up!c |!ped! Ac e!ped-up!c |!ped! Ac A!ped-up!c |!ped! Ac e!ped-up!c | %17
!ped! Ac A!ped-up!c |!ped! Ac A!ped-up!c |!ped! Ac d!ped-up!c |!ped! A^c d!ped-up!f | %21
!ped! f !fermata![dfac']2!ped-up!!ped! D- | !tenuto!D4!ped-up! | %23
!ped! !arpeggio!!tenuto![^C^c]4!ped-up! | %24
!ped! !arpeggio!!tenuto![!courtesy!=C!courtesy!=c]4!ped-up! | z4 || %26
[K:bass]{/G,,-} [G,,D,B,][G,B,D] [D,,D,][G,B,D] | [G,,D,G,][G,B,D] [D,,D,][G,B,D] | %28
 [G,,G,][G,B,D] [E,,E,][E,^G,B,D] | [A,,E,A,][E,A,C] [E,,E,][E,A,C] | %30
 [A,,E,A,][E,A,C] [E,,E,][E,A,C] | [A,,A,][E,A,C] [E,,E,][E,A,C] | [A,,A,][E,A,C] [F,,F,][F,^A,D] | %33
 [G,,G,][G,B,D] [D,,D,][G,B,D] | [G,,D,G,] z z2 || [G,,D,][D,G,B,] [D,,D,][D,G,B,] | %36
 [G,,G,][D,G,B,] [D,,D,][D,G,B,] | [G,,G,][D,G,B,] [D,,D,][D,G,B,] | %38
 [G,,G,][D,G,B,] [D,,D,][D,G,B,] | [G,,G,][D,G,B,] [D,,D,][D,^G,B,] | %40
 [^G,,^G,][E,,E,] [F,,F,][G,,G,] | [A,,E,A,][E,A,C] [E,,E,][E,A,C] | %42
 [A,,A,][E,A,C] [E,,E,][E,A,C] | [A,,A,][E,A,C] [E,,E,][E,A,C] | [A,,A,][E,A,C] [E,,E,][E,A,C] | %45
 [A,,A,][E,A,C] [E,,E,][E,A,C] | [A,,A,][E,A,C] [E,,E,][E,A,C] | [A,,A,][F,A,C] [D,,D,][F,A,C] | %48
 [A,,A,][D,,D,] [E,,E,][F,,F,] | [G,,G,][F,,F,]/[E,,E,]/- [E,,E,]/[E,,E,]/[_E,,_E,] | %50
 [D,,D,][D,,D,] [C,,C,][A,,,A,,] | [G,,,G,,][D,G,B,] [D,,D,][D,G,B,] | %52
 [G,,G,][D,G,B,] [D,,D,][D,G,B,] | [G,,G,][D,G,B,] [D,,D,][D,G,B,] | %54
 [G,,G,][D,G,B,] [D,,D,][D,G,B,] | [G,,G,][D,G,B,] [D,,D,][D,^G,B,] | %56
 [E,,E,][E,^G,B,D] [^G,,G,][E,G,B,D] |{/A,,-} [A,,E,A,][E,A,C] [E,,E,][E,A,C] | %58
 [A,,A,][E,A,C] [E,,E,][E,A,C] | [A,,,A,,][E,A,C] [E,,E,][E,A,C] | %60
 [C,,C,][_E,A,C] [_E,,E,][E,A,C] | [D,,D,][G,B,D] [B,,,B,,][G,B,D] | %62
 [_B,,,_B,,][_B,_D_F] [B,,,B,,][B,DF] | [A,,,A,,][E,A,C] [E,,E,][E,A,C] | %64
 [D,,D,][D,F,A,C] [D,,D,][D,F,A,C] | [G,,G,][G,,D,G,] [F,,F,][G,,G,] | %66
 [^G,,^G,][E,,E,] [F,,F,][G,,G,] | [A,,E,A,][E,A,C] [A,,A,][E,A,C] | %68
 [A,,A,][D,F,A,C] [D,,D,][D,F,A,C] | [G,,G,]2 [D,,D,][B,,,B,,] | [G,,,G,,]2 z2 || %71
{/A,,-} [A,,A,][E,A,C] [E,,E,][E,A,C] | [A,,A,][E,A,C] [E,,E,][E,A,C] | %73
 [A,,A,][E,A,C] [E,,E,][E,A,C] | [A,,A,][D,F,A,C] [D,,D,][D,F,A,C] | %75
{/G,,-} [G,,B,][D,G,B,] [D,,D,][D,G,B,] | [G,,G,][D,G,B,] [D,,D,][D,G,B,] | %77
 [B,,B,][D,G,B,] [G,,G,][D,G,B,] | [_B,,_B,][_D,_G,B,] [B,,B,][D,G,B,] | %79
 [A,,A,][E,A,C] [A,,A,][E,A,C] | [B,,B,][E,^G,B,] [B,,B,][E,G,B,] | [C,C][E,A,C] [A,,A,][E,A,C] | %82
 [A,,A,][A,CE] [A,,A,][A,CE] | [D,D][D,D] [^C,^C][D,D] | [_B,,_B,][B,,B,] [A,,A,][B,,B,] | %85
 [A,,A,] z !>![D,,A,,D,]2 | !>![^C,,^C,]2 !>![!courtesy!=C,,!courtesy!=C,]2 || %87
 [B,,,G,,B,,].[D,G,B,] .[D,G,B,][D,,D,] | .[D,G,B,].[D,G,B,] [G,,G,].[D,G,B,] | %89
 [G,,G,].[D,G,B,] .[D,G,B,][D,,D,] | .[D,G,B,].[D,G,B,] [D,,D,].[D,G,B,] | %91
 [G,,G,].[D,G,B,] [=F,,=F,][E,,E,] | [D,E,^G,B,][E,,E,] [!courtesy!^F,,!courtesy!^F,][^G,,G,] | %93
 [A,,A,][B,,B,] [C,C][E,E] | z2 [A,,A,]2 |{/A,,-} [A,,C].[E,A,C] .[E,A,C][E,,E,] | %96
 .[E,A,C].[E,A,C] [C,,C,].[E,A,C] | [A,,,A,,].[E,A,C] .[E,A,C][C,,C,] | %98
 .[E,A,C].[E,A,C] [E,,E,].[E,A,C] | [A,,A,][E,A,C] [E,,E,][F,A,C] | %100
 [A,,A,][D,F,A,C] [D,,D,][D,F,A,C] | [G,,G,][F,,F,]/[E,,E,]/- [E,,E,]/[^D,,^D,]/[E,,E,] | %102
 [!courtesy!=D,,!courtesy!=D,] z [D,,D,] z |{/D,,-} [D,,G,].[D,G,B,] .[D,G,B,][E,,E,] | %104
 .[D,G,B,].[D,G,B,] [B,,,B,,][D,,D,] | [G,,,G,,].[D,G,B,] .[D,G,B,][D,,D,] | %106
 .[D,G,B,].[D,G,B,] [D,,D,].[D,G,B,] | [G,,G,][D,G,B,] [=F,,=F,][E,,E,] | %108
 [D,E,^G,B,][E,,E,] [D,,D,][B,,,B,,] | [A,,,A,,][E,A,C] [C,,C,][E,A,C] | %110
 [E,,E,][E,A,C] [A,,A,][E,A,C] | [A,,A,].[E,A,C] .[E,A,C]C, | [_E,A,C][E,A,C] E,C, | %113
 B,,[G,B,D] [G,B,D]_B,, | [_B,_D_F][B,DF] [_B,,B,][B,DF] | [A,,A,][E,A,C] [E,A,C][E,,E,] | %116
 [D,,D,][D,F,C] [D,F,C]D,, | [G,,G,][F,,F,] [G,,G,][A,,A,] | [^G,,^G,][E,G,B,] [E,,E,][E,G,B,D] | %119
 [A,,A,][E,A,C] [E,,E,][E,A,C] | [A,,A,][D,F,A,C] [D,,D,][D,F,A,C] | %121
 [G,,G,][D,,D,] [B,,,B,,][D,,D,] || [G,,,G,,] z z2 | z D,E,^E, | F,^E,F,G, | G,F,G,B,- | B,2 z2 | %127
 z D,2 E, | =F,E,!courtesy!^F,G, | G,F,=F,E,- | E,[E,,E,] [F,,!courtesy!^F,][^G,,^G,] | %131
 [A,,E,A,][E,A,C] [E,A,C][E,,E,] | [C,,C,][_E,G,A,C] [E,G,A,C][_E,,E,] | %133
 [D,,D,][D,G,B,] [D,G,B,] z | [_D,,_D,][G,_B,_D] [G,B,D][D,,D,] | %135
 [!courtesy!=D,,!courtesy!=D,][E,,E,] [^E,,^E,][F,,F,] | %136
 [D,,D,][!courtesy!=E,,!courtesy!=E,] [F,,F,][D,,D,] | %137
!ped!{/G,,-} [G,,B,][G,=F]!ped-up!!ped! [G,E][G,_E]!ped-up! | %138
!ped! [G,D][G,,G,]!ped-up!!ped! [=F,,=F,][D,,D,]!ped-up! || %139
[M:3/4]!mp!!ped!{/C,,-} [C,,_E,]2 [E,G,]2 [E,G,]2!ped-up! |!ped! G,,,2 [_E,G,]2 [E,G,]2!ped-up! | %141
!ped!{/C,,-} [C,,_E,]2 [E,G,C]2 [E,G,C]2!ped-up! | %142
!ped!"_simile."!ped! [_E,,_E,]2 [E,G,C]2!ped-up! [E,G,C]2 | %143
!ped! [C,,C,]2 [_E,G,C]2!ped-up! [E,G,C]2 |!ped! [_E,,_E,]2 [E,G,C]2!ped-up! [E,G,C]2 | %145
!ped!{/G,,-} [G,,G,]2 [G,B,D]2!ped-up! [G,B,D]2 |!ped! [D,,D,]2 [G,B,D]2!ped-up! [G,B,D]2 | %147
!ped!{/E,,-} [E,,E,]2 [E,^G,B,]2!ped-up! [E,G,B,]2 |!ped! [^G,,^G,]2 [E,G,B,]2!ped-up! [E,G,B,]2 | %149
!ped!{/A,,-} [A,,C]2 [E,A,C]2!ped-up! [E,A,C]2 |!ped! [E,,E,]2 [E,A,C]2!ped-up! [E,A,C]2 | %151
!ped!{/C,,-} [C,,C,]2 [G,A,C_E]2!ped-up! [G,A,CE]2 |!ped! [D,,D,]2 [D,F,C]2!ped-up! [D,F,C]2 | %153
!ped!!mp!!ped!{/G,,-} [G,,B,]2 [G,B,D]2!ped-up! [G,B,D]2 | %154
!ped!{/C,,-} [C,,_E,]2 [E,G,C]2!ped-up! [E,G,C]2 |!ped! [D,G,B,]2 G,2!ped-up! A,2 | %156
!ped! B,2 A,2!ped-up! G,2 |!ped!{/C,,-} [C,,_E,]2 [E,G,C]2!ped-up! [E,G,C]2 | %158
!ped! [_E,,_E,]2 [E,G,C]2!ped-up! [E,G,C]2 |!ped! [C,,C,]2 [_E,G,C]2!ped-up! [E,G,C]2 | %160
!ped! _E,,2 [_E,G,]2!ped-up! [E,G,]2 |!ped!{/G,,-} [G,,B,]2 [G,B,D]2!ped-up! [G,B,D]2 | %162
!ped! _G,,2 [_G,_B,_D]2!ped-up! [G,B,D]2 |!ped!{/=F,,-} [F,,=F,]2 [C,F,A,]2!ped-up! [C,F,A,]2 | %164
!ped!{/E,,-} [E,,E,]2 [E,^G,]2!ped-up! [E,G,]2 |!ped!{/A,,,-} [A,,,A,,]2 [E,A,]2!ped-up! [A,C]2 | %166
!ped![I:staff -1] [A,CE]4[I:staff +1] x2!ped-up! | %167
!ped![I:staff -1] !arpeggio![CE]4[I:staff +1] x2!ped-up! | %168
!ped![I:staff -1] !arpeggio![_EA]4[I:staff +1] x2!ped-up! | %169
!ped![I:staff -1] !arpeggio![DGB]4[I:staff +1] x2!ped-up! | %170
!ped![I:staff -1] [_Gc]3 [_B_d][I:staff +1] x2!ped-up! | %171
!ped![I:staff -1] !arpeggio![!courtesy!=G!courtesy!=B!courtesy!=d]4[I:staff +1] x2 | %172
[M:8/4]!ped! x16!ped-up! |[M:3/4]!ped! [A,,E,]2 [E,A,C]2 [A,CE]2!ped-up! |!ped! [CEA]6!ped-up! | %175
!ped!{/C,,-} [C,,_E,]2 [G,C]2 [C_EG]2!ped-up! |!ped!{/D,,-} [D,,F,]2 [D,F,C]2 [D,F,C]2!ped-up! || %177
!ped!{/G,,-} [G,,G,]2 [D,G,]2 [G,B,]2!ped-up! |!ped!{/D,,-} [D,,D,]2 [D,G,]2 z2!ped-up! | %179
!ped!{/D,-} [D,G,]2 G,2 [D,G,]2!ped-up! |!ped! D,2 [D,G,]2 D,2!ped-up! | %181
!ped!{/D,-} [D,G,]2 [D,G,]2 x2!ped-up! |!ped! z2 [E,,B,,]2 ^G,,2!ped-up! | %183
!ped! [A,C][^G,B,]!ped-up!!ped! [A,C][B,^D]!ped-up!!ped! [CE][D^G]!ped-up! | %184
!ped! x2!ped-up!!ped! x2!ped-up!!ped! x2!ped-up! | %185
!ped!{/A,,-} [A,,E,A,]2 [E,A,C]2 [A,CE]2!ped-up! |!ped!{/E,,-} [E,,E,]2 [A,CE]2 [A,CE]2!ped-up! | %187
!ped!{/A,,-} [A,,C]2 [E,A,C]2 [E,A,C]2!ped-up! |!ped! [E,,E,]2 [E,A,C]2 [E,A,C]2!ped-up! | %189
!ped!!<(!{/A,,-} [A,,A,]2 [E,A,C]2 [E,A,C]2!ped-up! |!ped! [D,,D,]2 [D,F,C]2 [D,F,C]2!<)!!ped-up! | %191
!ped! [G,,G,][^A,,^A,]!ped-up!!ped! [B,,B,][^C,^C]!ped-up!!ped! [D,D][E,E]!ped-up! | %192
!ped! [D,D][E,E]!ped-up!!ped! [D,D][!courtesy!=C,!courtesy!=C]!ped-up!!ped! [B,,B,][!courtesy!=A,,!courtesy!=A,]!ped-up! | %193
!ped!{/G,,-} [G,,B,]2 [D,G,B,]2 [G,B,D]2!ped-up! | %194
!ped!{/D,,-} [D,,D,]2 [D,G,B,]2 [G,B,D]2!ped-up! | %195
!ped!{/G,,-} [G,,B,]2 [D,G,B,]2 [G,B,D]2!ped-up! |!ped!{/D,,-} [D,,D,]2 [G,B,D]2 [G,B,D]2!ped-up! | %197
!ped!!<(! [G,,G,]2 [F,,F,]2 [=F,,=F,]2!ped-up! | %198
[M:4/4]!ped! [E,,E,]2 [B,,,B,,]2 [^G,,,^G,,]2 [E,,,E,,]2!<)!!ped-up! | %199
!ped!{/A,,,-} [A,,,E,,A,,]2 [E,A,C]2 x4 | x8 | x8!ped-up! ||[M:3/4]!p!!ped! (A,,C,_E,G, A,C | %203
[I:staff -1] _EGAc _e2)!ped-up! |!ped![I:staff +1] (G,,B,,D,G, B,D)!ped-up! | %205
!ped! (^C,E,G,_B, ^C[CEG])!ped-up! |!ped! (A,!courtesy!=CEC A,G,)!ped-up! | %207
!ped! (F,A,DA,) [D,F,C]C!ped-up! |!ped! (G,B,DB, DB,)!ped-up! |!ped! (_A,B,D=F A,2)!ped-up! | %210
[K:treble][K:treble]!ped! (!courtesy!=A,CEA EA)!ped-up! |!ped! (C_EGA GE)!ped-up! | %212
!ped! (DGBG DG)!ped-up! |!ped! (E^G B G3-) | G6!ped-up! |!ped! (A,C _E2) z2!ped-up! | %216
!ped! (DF !arpeggio!!fermata!A4) | z2 !arpeggio!!fermata![A,F]4!ped-up! || %218
[M:2/4]!ped! (!arpeggio!G,D ED | ED ED)!ped-up! |!ped! (G,D ED | ED ED)!ped-up! |!ped! (G,D ED | %223
 ED ED)!ped-up! |!ped! (G,D ED | ED ED)!ped-up! |!ped! (G,D ED)!ped-up! |!ped! (^G,D ED)!ped-up! | %228
!ped! (A,C EC)!ped-up! |!ped!"_simile"!ped! A,C E!ped-up!C |!ped! A,E G!ped-up!E | %231
!ped! A,E G!ped-up!E |!ped! A,E GE | GE G!ped-up!E |!ped! A,E G!ped-up!E |!ped! DF A!ped-up!F | %236
!ped! DG B!ped-up!G |!ped! DF A!ped-up!F |!ped! G,D ED |!ped! ED E!ped-up!D | %240
!ped! G, (3D/B,/B,/ DB, |!ped! ED E!ped-up!D |!ped! G,D E!ped-up!D |!ped! ^G,D E!ped-up!D | %244
!ped! A,E G!ped-up!E |!ped! AE c!ped-up!E |!ped! CE A!ped-up!E |!ped! C_E A!ped-up!E | %248
!ped! B,D G!ped-up!D |!ped! _B,_D _F!ped-up!D |!ped! A,C E!ped-up!C |!ped! DF D!ped-up!F | %252
!ped! G,B, D!ped-up!G |!ped! ^G,E ^G!ped-up!E |!ped! A,E !courtesy!=G!ped-up!E | %255
!ped! DA D!ped-up!A |!ped! z D B,!ped-up!G, |!ped! z4 | A,F B,F | CF A,F | B,C CF | %261
 A,2 z2!ped-up! |!ped! B,G A,G | B,G G,G | DG DG | B,2 z2!ped-up! |!ped! A,G CG | EG CG | DF CF | %269
 A,2 z2!ped-up! |!ped! B,^A, B,^B,!ped-up! |!ped! D^C DE!ped-up! |!ped! =FE FG!ped-up! | %273
!ped! _AG !fermata!A2!ped-up! | z2 z _B |!ped! !courtesy!=AD!ped-up!!ped! [Ac]D!ped-up! | %276
!ped! ^C[A^c]!ped-up!!ped! !courtesy!=C[A!courtesy!=c]!ped-up! || %277
[M:4/4] [B,DGB] z (3[B,DGB][B,DGB][B,DGB] [B,DGB] z (3z z [B,DGB] | %278
 [B,DGB] z [B,DGB][B,DGB] [B,DGB] z [B,DGB] z | %279
[K:bass] [G,B,DG] z (3[G,B,DG][G,B,DG][G,B,DG] [F,B,DF] z (3[F,B,DF][F,B,DF][F,B,DF] | %280
 [E,B,E] z (3[E,B,E][E,B,E][E,B,E] [D,G,B,D][E,E][D,G,B,D][B,,B,] | %281
 [G,,D,G,] z (3[G,,B,,D,G,][G,,B,,D,G,][G,,B,,D,G,] [G,,B,,D,G,] z (3[G,,B,,D,G,][G,,B,,D,G,][G,,B,,D,G,] | %282
 [^G,,B,,E,^G,] z (3[G,,B,,E,G,][G,,B,,E,G,][G,,B,,E,G,] [G,,B,,E,G,] z (3[G,,B,,E,G,][G,,B,,E,G,][G,,B,,E,G,] | %283
 [A,,C,E,A,]2!ped! (3A,^G,A,!ped-up!!ped! (3A,G,A,!ped-up!!ped! (3E,^D,E,!ped-up! | %284
!ped! !>!B,,2 !>![A,,A,]!ped-up! z !>![_A,,_A,] z !>![G,,!courtesy!=G,] z | %285
{/E,,-} [E,,!courtesy!=A,] z (3[E,A,C][E,A,C][E,A,C] [E,A,C] z (3[E,A,C][E,A,C][E,A,C] | %286
 [A,,A,]2 (3[E,A,C][E,A,C][E,A,C] [E,A,C] z [E,A,C] z | %287
 [A,,,A,,]2 (3[E,A,C][E,A,C][E,A,C] [E,A,C] z [E,A,C] z | %288
 [A,,,A,,]2 (3[E,A,C][E,A,C][E,A,C]!ped! [E,A,C][C,C][B,,B,][A,,A,]!ped-up! | %289
 [E,,E,] z [E,A,C] z [D,,D,] z (3D,D,,D, | %290
!ped! D,,2!8vb(! !>![D,,,D,,]2!ped-up!!8vb)!!ped! [D,F,C]2!8vb(! [D,,,D,,]2!ped-up!!8vb)! | %291
{/G,,,-} [G,,,G,,]2 (3[^C,,^C,][D,,D,][F,,F,] (3[G,,G,] z [^A,,^A,] (3[B,,B,] z [C,^C] | %292
 [D,D] [D,D]2 [_D,_D]- [D,D] [!courtesy!=C,!courtesy!=C]2 [B,,B,] | %293
 [B,,B,] z (3[!courtesy!=D,G,B,][D,G,B,][D,G,B,] [D,G,B,] z [D,,D,] z | %294
 [G,,,G,,]2 (3[D,G,B,][D,G,B,][D,G,B,] [D,G,B,][E,G,B,][D,G,B,]B,, | %295
 [G,,G,]2 (3[D,G,B,][D,G,B,][D,G,B,] [D,G,B,] z [D,,D,] z | %296
 [G,,,G,,]2 (3[D,G,B,][D,G,B,][D,G,B,] [D,G,B,][D,A,B,][G,B,][F,B,] | %297
 [G,,G,]2 (3[D,G,B,][D,G,B,][D,G,B,] [=F,,=F,] z [E,,B,,E,]2 | %298
 [E,^G,B,D]2 [E,,E,][_E,,_E,] [D,,D,][C,,C,][B,,,B,,][D,,D,] | %299
 [A,,,A,,]2 (3[!courtesy!=E,A,C][E,A,C][E,A,C] z2 [!courtesy!=E,,E,]2 | %300
!ped! (3[A,,,A,,][B,,,B,,][C,,C,]!ped-up! [E,,E,][A,,A,]!ped! [B,,B,][C,C][E,E][A,A]!ped-up! | %301
!ped! A,2 [C_EG]4[K:treble] (3C!courtesy!_EG!ped-up! | AG_EC[K:bass] A,G,!courtesy!_E,C,!ped-up! | %303
!ped! B,,2 (3D,G,B, D2 A,2!ped-up! |[M:11/8]!ped! [_B,,_B,]2 (3G,B,_D (3E2 G2 F2 E3!ped-up! | %305
[M:4/4]!ped!{/A,,-} [A,,E,]E,A,C- CE,A,E,!ped-up! |!ped! D,F,A,C- CCA,[D,F,]!ped-up! | %307
!ped! G,,D,B,D,!ped-up!!ped! =F,,D,A,D,!ped-up! | %308
[M:33/16]!ped! !>!E,,B,, x4 x3!ped-up! x7/2!ped! x4!ped-up! | %309
[M:4/4]!ped! [A,,,A,,]2 (3[E,A,C][E,A,C][E,A,C] [E,A,C]2 [E,A,C]2!ped-up! | %310
!ped! [C,,C,]2 [_E,G,A,C]2 [G,A,C_E][G,A,CE][G,A,CE][E,G,]!ped-up! | %311
!ped! [D,,D,]2 [D,G,B,]2 [G,B,D]2 [D,,D,]2!ped-up! | %312
!ped! !>![_D,,_D,]2 [_G,_B,_D_F]2 [B,DF_G]2 [DFG_B]2- | [DFGB]8!ped-up! | %314
!ped! [D,,D,]2 [D,G,B,]2 [G,B,!courtesy!=D]2 [G,B,D]2!ped-up! | %315
!ped! [D,,D,]2 [E,A,^C]2!ped-up!!ped! [D,,D,]2 [F,A,!courtesy!=CD]2!ped-up! | %316
!ped! [D,,D,]2 [D,G,B,]2 [G,B,]2 [D,G,B,]2!ped-up! | %317
!ped! [D,,D,]2 [_F,_B,_D]2 [D,,D,]2 [F,B,D]2!ped-up! | %318
!ped! [D,,D,]2 [D,G,!courtesy!=B,]2 [G,B,]2 [D,G,B,]2!ped-up! | %319
!ped! [D,,D,]2 [E,G,A,]2 [D,,D,]2 [E,G,A,]2!ped-up! | %320
!mp!!8vb(!!ped! [D,,,D,,]2!8vb)! [D,A,]2 [F,A,C]4!ped-up! | %321
!ped! [E,,B,,E,]2 [E,G,]2 [G,B,]4!ped-up! |!ped! !arpeggio![^C,G,]2 E,G, _B,G,E,C,!ped-up! | %323
!ped! [D,G,!courtesy!=B,]8- | [D,G,B,]8!ped-up! | %325
!ped! !arpeggio![D,F,A,C][K:treble] DEF BA!courtesy!^GA | ed^cd ba^ga!ped-up! | %327
!ped! d'_d'c'b a!courtesy!=gfe | d2 c2 D2 F2!ped-up! |!p!!ped! G8- | G4 D4 | B,8 | %332
 G,4 E2 D2!ped-up! |[K:bass]!ped!{/C,-} [C,G,_E]4 z4 |[K:treble] C2 A2 G2 _E2!ped-up! | %335
!ped! B,2 D2 G2 A2 | B2 G2 e2 d2 | z8 |[K:bass] !fermata![G,,D,G,]8!ped-up! |] %339
V:3
 x6 | x6 | x6 |[M:12/4] x9!8va(! x4 f' x f' x f' x f' x/ f' x5/2 |[M:3/4] d6 | e6 | ^f6 || %7
[K:G][M:2/4] x4 | x4 | x4 | x4 | x4 | x4 | x4 | x4 | x4 | x4 | x4 | x4 | x4 | x4 | x3!8va)! x | %22
 x4 | x4 | x4 | x4 || x4 | x4 | x4 | x4 | x4 | x4 | x4 | x4 | x4 || x4 | x4 | x4 | x4 | x4 | x4 | %41
 x4 | x4 | x4 | x4 | x4 | x4 | x4 | x4 | x4 | x4 | x4 | x4 | x4 | x4 | x4 | x4 | x4 | x4 | x4 | %60
 x4 | x4 | x4 | x4 | x4 | x G3 | ^G4 | x4 | x4 | x4 | x4 || a4- | a4 | x4 | x4 | g4- | g4 | x4 | %78
 x4 | x4 | x4 | x4 | x4 | x4 | x4 | x4 | x4 || x4 | x4 | x4 | x4 | x4 | x [E^G]3 | x4 | x4 | %95
!8va(! x4 | x4 | x4 | x3!8va)! x | x4 | x4 | x4 | x4 | x4 | x4 | x4 | x4 | x4 | x4 | x4 | x4 | x4 | %112
 x4 | x4 | x4 | x4 | x4 | x4 | x4 | x4 | x4 | x4 || x4 | D4- | D4 | x4 | x4 | D4- | D4 | x4 | x4 | %131
 x4 | x4 | x4 | x4 | [D!courtesy!^FA][E!courtesy!=G] [^E^G][FA] | x4 | x4 | x4 || %139
[M:3/4] [C_E]2 [CE]2 [CE]2 | [C_E]2 z2 E2 | x6 | x6 | x6 | x6 | x6 | x6 | x6 | x6 | x6 | x6 | x6 | %152
 x6 | x6 | x6 | x6 | x6 | x6 | x6 | x6 | x6 | x6 | x6 | x6 | x6 | x6 | x6 | x6 | x6 | x6 | x6 | %171
 x6 |[M:8/4] [EBd]2 x14 |[M:3/4] x6 | x6 | x6 | x6 || x6 | x6 | x6 | x6 | x6 | x6 | x6 | %184
[K:treble] C^D E^G A x | x6 | x6 | x6 | x6 | x6 | x6 | x6 | x6 | d4 x2 | x2 [Bd]4 | B4 x2 | %196
 B2 A2 x2 | x6 |[M:4/4] x8 | x4 [CE]2 [CE]2 | [CEA]2 [Ac]2!8va(! [Ace]2 [ce]2 | %201
 !fermata![cea]8!8va)! ||[M:3/4] x6 | x6 | x6 | x6 | x6 | x6 | [GB]2 x4 | x6 | x6 | x6 | x6 | x6 | %214
 x6 | x6 | x6 | x6 ||[M:2/4] x4 | x4 | x4 | x4 |!8va(! x4 | x4 | x4 | x4 | x4 | x [e^g]3 | x4 | %229
 x4 | x4 | x4 | x4 | x4 | x4 | ^a2 aa | x4 | x!8va)! x3 | x4 | x4 | x4 | x4 | x4 | x4 | a2 x2 | %245
 x4 | x4 | x4 | x4 | x4 | x4 | x4 | x4 | x4 | x4 | x4 | x4 |!8va(! x4 | x4!8va)! | x4 | x4 | %261
!8va(! x4 | x4!8va)! | x4 | x4 |!8va(! [gb]2 x2 | x4!8va)! | x4 | x4 | [cf]2 x2 | x4 | x4 | x4 | %273
 x4 | x4 | x4 | x4 ||[M:4/4]!8va(! x8 | x8 | x8 | x8 | x8 | x8 | x2!8va)! x6 | x8 | x8 | x8 | x8 | %288
 x8 | x8 | x8 | x8 | x8 | x8 | x8 | x8 | x8 | x8 | x8 | x8 | x8 | x8 | x8 | x4 [Bd]2 [Bd]2 | %304
[M:11/8] x11 |[M:4/4] x8 | x8 | x8 |[M:33/16] x7!8va(! x7/2!8va)! x6 |[M:4/4] x8 | x8 | x8 | x8 | %313
 x8 | x8 | x8 | x8 | x8 | x8 | x8 | x8 | x4 E2 G2 | [^CE]6 x2 | x8 |!8va(! x8 | x8 | x8 | x8 | x8 | %329
 x8 | x8 | x8 | x8 | x8 | x8 | x8 | x8 | x8!8va)! | x8 |] %339
V:4
 x6 | x6 | x6 |[M:12/4] x24 |[M:3/4] x6 | x6 | x6 ||[K:G][M:2/4][K:treble] x4 | x4 | x4 | x4 | x4 | %12
 x4 | x4 | x4 | x4 | x4 | x4 | x4 | x4 | x4 | x4 | x4 | x4 | x4 | x4 ||[K:bass] x4 | x4 | x4 | x4 | %30
 x4 | x4 | x4 | x4 | x4 || x4 | x4 | x4 | x4 | x4 | x4 | x4 | x4 | x4 | x4 | x4 | x4 | x4 | x4 | %49
 x4 | x4 | x4 | x4 | x4 | x4 | x4 | x4 | x4 | x4 | x4 | x4 | x4 | x4 | x4 | x4 | x4 | x4 | x4 | %68
 x4 | x4 | x4 || x4 | x4 | x4 | x4 | x4 | x4 | x4 | x4 | x4 | x4 | x4 | x4 | x4 | x4 | x4 | x4 || %87
 x4 | x4 | x4 | x4 | x4 | x4 | x4 | x4 | x4 | x4 | x4 | x4 | x4 | x4 | x4 | x4 | x4 | x4 | x4 | %106
 x4 | x4 | x4 | x4 | x4 | x4 | x4 | x4 | x4 | x4 | x4 | x4 | x4 | x4 | x4 | x4 || x4 | x4 | x4 | %125
 x4 | x4 | x4 | x4 | x4 | x4 | x4 | x4 | x4 | x4 | x4 | x4 | x4 | x4 ||[M:3/4] x6 | x6 | x6 | x6 | %143
 x6 | x6 | x6 | x6 | x6 | x6 | x6 | x6 | x6 | x6 | x6 | x6 | x6 | x6 | x6 | x6 | x6 | x6 | x6 | %162
 x6 | x6 | x6 | x6 | x6 | x6 | x6 | x6 | x6 | x6 |[M:8/4] x16 |[M:3/4] x6 | x6 | x6 | x6 || x6 | %178
 x6 | x6 | x6 | x6 | x6 | [A,,E,]^D, E,^G, A,B, | x6 | x6 | x6 | x6 | x6 | x6 | x6 | x6 | x6 | x6 | %194
 x6 | x6 | x6 | x6 |[M:4/4] x8 | x8 | x8 | x8 ||[M:3/4] x6 | x6 | x6 | x6 | x6 | x6 | x6 | x6 | %210
[K:treble][K:treble] x6 | x6 | x6 | x6 | x6 | x6 | x6 | x6 ||[M:2/4] x4 | x4 | x4 | x4 | x4 | x4 | %224
 x4 | x4 | x4 | x4 | x4 | x4 | x4 | x4 | x4 | x4 | x4 | x4 | x4 | x4 | x4 | x4 | x4 | x4 | x4 | %243
 x4 | x4 | x4 | x4 | x4 | x4 | x4 | x4 | x4 | x4 | x4 | x4 | x4 | x4 | x4 | x4 | x4 | x4 | x4 | %262
 x4 | x4 | x4 | x4 | x4 | x4 | x4 | x4 | x4 | x4 | x4 | x4 | x4 | x4 | x4 ||[M:4/4] x8 | x8 | %279
[K:bass] x8 | x8 | x8 | x8 | x8 | x8 | x8 | x8 | x8 | x8 | x8 | %290
 x2!8vb(! x2!8vb)! x2!8vb(! x2!8vb)! | x8 | x8 | x8 | x8 | x8 | x8 | x8 | x8 | x8 | x8 | %301
 x6[K:treble] x2 | x4[K:bass] x4 | x8 |[M:11/8] x11 |[M:4/4] x8 | x8 | x8 |[M:33/16] x33/2 | %309
[M:4/4] x8 | x8 | x8 | x8 | x8 | x8 | x8 | x8 | x8 | x8 | x8 |!8vb(! x2!8vb)! x6 | x8 | x8 | x8 | %324
 x8 | x[K:treble] x7 | x8 | x8 | x8 | x8 | x8 | x8 | x8 |[K:bass] x8 |[K:treble] x8 | x8 | x8 | %337
 x8 |[K:bass] x8 |] %339

